X:1
T:Magnificat secundi toni - Lasso
T:#
%%score [ 1 2 3 4 ]
L:1/8
Q:1/4=130
M:none
K:C
V:1 treble nm="S" snm="S"
V:2 treble nm="A" snm="A"
V:3 treble-8 nm="T" snm="T"
V:4 treble nm="B" snm="B"
V:1
 z14 | z14 ||[K:F][M:4/2][K:treble][Q:1/4=200][Q:1/4=200][Q:1/4=200][Q:1/4=200] z8 B8 | B12 B4 | %4
w: ||Et|ex- ul-|
 F8 G8 | d8 d4 (c4- | c2 B2 B8) A4 | B4 F4 G8 | F8 F6 F2 | G4 G4 C4 D4 | z4 B6 B2 B4 | A8 F8 | %12
w: ta- vit|spi- ri- tus|* * * me-|us in De-|o sa- lu-|ta- ri me- o,|sa- lu- ta-|ri me-|
 G24 ||[Q:1/4=130][Q:1/4=130][Q:1/4=130][Q:1/4=130] z18 | z16 || %15
w: o.|||
[M:4/2][Q:1/4=200][Q:1/4=200][Q:1/4=200][Q:1/4=200] A8 G4 A4 | B8 B6 B2 | B4 B4 A4 (c4- | %18
w: Qui- a fe-|cit mi- hi|ma- gna, qui po\-|
 c2 B2 B8) A4 | B4 F4 G4 A4 | B4 A8 G4- | (G2 ^FE F4) G16 ||[Q:1/4=130] x24 | x12 | %24
w: * * * tens|est: et san- ctum|no- men e\-|* * * * ius.|||
[M:4/2] z4 A4 A2 A2 A2 A2 | A4 z2 A2 A2 A2 A4 | B4 G4 z2 A2 d4 | D2 D2 D4 D4 z2 B2 | B4 B4 A6 G2 | %29
w: Fe- cit po- ten- ti-|am in bra- chi- o|su- o: di- sper-|sit su- per- bos, su-|per- bos men- te|
 A2 G2 ^F4 G4 A2 B2 | G2 G2 ^F4 G16 ||[Q:1/4=130] x24 | x18 | F8 G4 F4 | B8 A4 d4 | %35
w: cor- dis su- i, men- te|cor- dis su- i.|||E- su- ri-|en- tes im-|
 c2 B2 A4 B4 z2 B2 | A2 A2 A4 z2 G2 F4 | E2 E2 D4 E2 E2 F4 | F2 G2 F4 D2 G2 F4 | D2 G2 ^F4 G16 || %40
w: ple- vit bo- nis: et|di- vi- tes di- mi-|sit i- na- nes, di- mi-|sit i- na- nes, di- mi-|sit i- na- nes.|
[Q:1/4=130] x24 | x16 |[M:4/2] F8 F4 F4 | A6 A2 A4 A4 | G4 (A2 B2 c2 B2 B4- | B4) A4 B4 d4- | %46
w: ||Si- cut lo-|cu- tus est ad|pa- tres * * * *|* no- stros, A\-|
 d2 c2 B4 F4 F2 F2 | F4 B4 A4 G4 | G4 ^F4 G16 ||[Q:1/4=130][Q:1/4=130][Q:1/4=130][Q:1/4=130] z16 | %50
w: * bra- ham et se- mi-|ni e- ius in|sae- cu- la.||
 z16 ||[Q:1/4=200][Q:1/4=200][Q:1/4=200][Q:1/4=200] A8 B4 A4 | (c6 B2 A2 G2 A4) | z4 d8 G4 | %54
w: |Si- cut e-|rat * * * *|in prin-|
 d6 d2 d4 d4 | c4 (B6 G2 A4) |[M:4/2] (B6 A2 G2 F2 G4) | F4 F4 F2 F4 F2 | G4 G6 G2 F2 F2 | %59
w: ci- pi- o, et|nunc, et * *|sem\- * * * *|per, et in sae- cu-|la sae- cu- lo- rum,|
 (F6 ED E4) D4 | G6 G2 A8 |[Q:1/4=198] B4[Q:1/4=195] (A6[Q:1/4=193] G2[Q:1/4=192] G4- | %62
w: A\- * * * men,|sae- cu- lo-|rum, A\- * *|
[Q:1/4=189] G4[Q:1/4=187] ^F4)[Q:1/4=184] G8 | %63
w: * * men,|
[Q:1/4=180] c6[Q:1/4=178] c2[Q:1/4=177] =B4[Q:1/4=175] d4 |[Q:1/4=171] c8[Q:1/4=170] =B16 |] %65
w: sae- cu- lo- rum,|A- men.|
V:2
 z14 | z14 ||[K:F][M:4/2][K:treble] z8 D8 | D12 D4 | (D8 _E8) | D4 F8 F4 | D8 F8 | D4 D4 _E8 | %8
w: ||Et|ex- ul-|ta\- *|vit spi- ri-|tus me-|us in De-|
 D8 D6 D2 | D4 D4 (F6 G2 | A4) D4 D6 D2 | (F6 E2 D4) C4 | _E8 D16 || z18 | z16 ||[M:4/2] F8 D4 F4 | %16
w: o sa- lu-|ta- ri me\- *|* o, sa- lu-|ta\- * * ri|me- o.|||Qui- a fe-|
 F8 F6 F2 | F4 G4 F8 | F8 F8 | D4 D4 E4 F4 | (D2 E2 F2 C2 F4) E4 | D8 D16 || x24 | x12 | %24
w: cit mi- hi|ma- gna, qui|po- tens|est: et san- ctum|no\- * * * * men|e- ius.|||
[M:4/2] z4 F4 F2 F2 F2 F2 | F4 z2 F2 F2 F2 F4 | F4 E4 z2 F2 F4 | B,2 B,2 B,4 B,4 z2 F2 | %28
w: Fe- cit po- ten- ti-|am in bra- chi- o|su- o: di- sper-|sit su- per- bos, su-|
 F4 F4 F6 E2 | F2 E2 D4 E4 F2 F2 | E2 D2 D4 =B,16 || x24 | x18 |[M:4/2] C8 E4 D4 | F8 F4 F4 | %35
w: per- bos men- te|cor- dis su- i, men- te|cor- dis su- i.|||E- su- ri-|en- tes im-|
 F2 D2 F4 F4 z2 F2 | F2 F2 F4 z2 D2 D4 | C2 C2 =B,4 C2 C2 C4 | D2 C2 D4 =B,2 C2 D4 | %39
w: ple- vit bo- nis: et|di- vi- tes di- mi-|sit i- na- nes, di- mi-|sit i- na- nes, di- mi-|
 =B,2 C2 D4 B,16 || x24 | x16 |[M:4/2] C8 D4 C4 | F2 F2 F4 F8 | E4 F4 G8 | F8 F6 F2 | F8 D4 C2 C2 | %47
w: sit i- na- nes.|||Si- cut lo-|cu- tus est ad|pa- tre no-|stros, A- bra-|ham et se- mi-|
 D4 G4 E4 D4 | E4 D4 =B,16 || z16 | z16 || C8 D4 (F4- | F2 ED E4) F4 C4 | D4 F8 _E4 | D4 F4 F6 F2 | %55
w: ni e- ius in|sae- cu- la.|||Si- cut e\-|* * * * rat, si-|cut e- rat|in prin- ci- pi-|
 F4 D4 (G4 F2 _E2) |[M:4/2] D4 D4 _E8 | D4 D4 D2 D4 D2 | D4 D2 D2 _E4 (C4- | %59
w: o, et nunc, * *|* et sem-|per, et in sae- cu-|la sae- cu- lo- rum,|
 C2 =B,A, B,4) C4 _B,4 | D6 D2 F8 | F8 D8- | D8 B,4 _E4- | E4 _E4 D4 D4 | _E8 D16 |] %65
w: * * * * A- men,|sae- cu- lo-|rum, A\-|* men, sae\-|* cu- lo- rum,|A- men.|
V:3
[K:F]"^Magnificat secundi toni""^Orlando di Lasso\n(1530-94)" F2 G2 F2 F2 B2 B4 | B4 A2 F2 G2 G4 || %2
w: Ma- gni\- * fi\- * cat|anima~me- a Do- mi- num.|
w: ||
[M:4/2][K:treble-8] F16 | G8 (F8 | B8) B8 | B4 B8 A4 | B8 c8 | B8 z4 B4 | B8 B4 B4- | B2 B2 B4 A8 | %10
w: Et|ex- ul\-|* ta-|vit spi- ri-|tus me-|us in|De- o sa\-|* lu- ta- ri|
w: ||||||||
 F8 G4 B4 | c4 d4 A8 | c8 =B16 || F2 G2 B8 c2 B4 | B8 A2 F2 G4 ||[M:4/2][K:treble-8] c8 B4 c4 | %16
w: me- o, sa-|lu- ta- ri|me- o.|Qui- a respexit~humilitatem~ancillae su- ae:|ecce~enim~ex~hoc~beatam * * *|Qui- a fe-|
w: ||||me~dicent~omnes~genera- ti- o- nes.||
 d4 d6 d2 d4- | d4 _e4 c4 A4 | (d8 c8) | B8 z4 c4 | B4 c4 c4 c4 | A8 G16 || F2 G2 B8 c2 B2 B4 x4 | %23
w: cit mi- hi ma\-|* gna, qui po-|tens *|est: et|san- ctum no- men|e- ius.|~Et mi- sericordia~eius~a~progenie~in~pro- ge- ni- es|
w: |||||||
 B4 A2 F2 G4 |[M:4/2][K:treble-8] c4 c2 c2 c2 c2 c4 | z2 c2 c2 c2 d4 c4 | d4 z2 c2 c4 B2 B2 | %27
w: timenti- bus e- um.|Fe- cit po- ten- ti- am|in bra- chi- o su-|o: di- sper- sit su-|
w: ||||
 F4 F4 z2 d2 d4 | d8 c6 c2 | c2 c2 A4 c4 c2 d2 | c2 B2 A4 G16 || F2 G2 B8 c2 B4 x6 | %32
w: per- bos, su- per-|bos men- te|cor- dis su- i, men- te|cor- dis su- i.|De- po- suit~potentes~de se- de,|
w: |||||
 B8 A2 F2 G2 G4 |[M:4/2][K:treble-8] A8 c4 A4 | d8 c4 B4 | A2 B2 c4 d2 d2 d2 d2 | %36
w: et~exalta- vit hu- mi- les.|E- su- ri-|en- tes im-|ple- vit bo- nis: et di- vi-|
w: ||||
 c4 z2 c2 B4 A2 B2 | G4 G4 z2 G2 A4 | B2 G2 A4 G2 G2 A4 | G2 G2 A4 G16 || F2 G2 B8 c2 B4 x6 | %41
w: tes di- mi- sit i-|na- nes, di- mi-|sit i- na- nes, di- mi-|sit i- na- nes.|Su- sce- pit~Israel~puerum su- um,|
w: |||||
 B8 A2 F2 G4 |[M:4/2][K:treble-8] A8 B4 A4 | c6 c2 d4 c4 | c4 c4 (_e6 d2 | c8) d4 B4- | %46
w: recordatus~misericordi- ae su- ae.|Si- cut lo-|cu- tus est ad|pa- tres no\- *|* stros, A\-|
w: |||||
 B2 c2 d4 B4 A2 A2 | B4 d4 c4 B4 | A4 A4 G16 || F2 G2 B4 c2 B2 B4 | B8 A2 F2 G4 || F16 | (G8 F8) | %53
w: * bra- ham et se- mi-|ni e- ius in|sae- cu- la.|Glo- ri- a~Patri,~et Fi- li- o,|et~Spiritu- i San- cto.|Si-|cut *|
w: |||||||
 B8 B4 B4- | B2 B2 B2 B2 B4 B4 | A4 B4 c8 |[M:4/2][K:treble-8] B8 z4 B4 | B2 B4 B2 B8 | %58
w: e- rat in|* prin- ci- pi- o, et|nunc, et sem-|per, et|in sae- cu- la|
w: |||||
 B6 B2 B4 A4 | F8 G8 | B8 c4 d4- | d4 c4 (B8 | A8) G8- | G16 | G24 |] %65
w: sae- cu- lo- rum,|A- men,|sae- cu- lo\-|* rum, A\-|* men.|||
w: |||||||
V:4
 z14 | z14 ||[K:F][M:4/2][K:bass] z8 B,,8 | G,,4 G,,4 B,,8- | B,,4 B,,4 _E,8 | %5
w: ||Et|ex- ul- ta\-|* vit spi-|
 B,,4 (B,,2 C,2 D,2 E,2 F,4) | G,8 F,8 | z4 B,4 _E,8 | B,,4 B,,6 B,,2 B,,4 | G,,4 G,4 F,4 (D,4- | %10
w: ri- tus * * * *|me- us|in De-|o sa- lu- ta-|ri me- o, sa\-|
 D,2 C,2 B,,2 A,,2 G,,4) G,4 | F,4 (D,6 E,2 F,4) | C,8 G,,16 || z18 | z16 ||[M:4/2] F,8 G,4 F,4 | %16
w: * * * * * lu-|ta- ri * *|me- o.|||Qui- a fe-|
 B,4 B,6 B,2 B,4 | B,4 _E,4 F,8 | (D,6 _E,2 F,8) | B,,8 z4 F,4 | G,4 A,4 F,4 C,4 | D,8 G,,16 || %22
w: cit mi- hi ma-|gna, qui po-|tens * *|est: et|san- ctum no- men|e- ius.|
 x24 | x12 |[M:4/2] F,4 F,2 F,2 F,2 F,2 F,4 | z2 F,2 F,2 F,2 D,4 F,4 | B,,4 z2 C,2 F,4 B,,2 B,,2 | %27
w: ||Fe- cit po- ten- ti- am|in bra- chi- o su-|o: di- sper- sit su-|
 B,,4 B,,4 z2 B,2 B,4 | B,8 F,6 C,2 | F,2 C,2 D,4 C,4 F,2 B,,2 | C,2 G,,2 D,4 G,,16 || x24 | x18 | %33
w: per- bos, su- per-|bos men- te|cor- dis su- i, men- te|cor- dis su- i.|||
[M:4/2] F,8 C,4 D,4 | B,,8 F,4 B,,4 | F,2 G,2 F,4 B,,2 B,2 B,2 B,2 | F,4 z2 F,2 G,4 D,2 B,,2 | %37
w: E- su- ri-|en- tes im-|ple- vit bo- nis: et di- vi-|tes di- mi- sit i-|
 C,4 G,,4 z2 C,2 F,4 | B,,2 _E,2 D,4 G,,2 !courtesy!_E,2 D,4 | G,,2 _E,2 D,4 G,,16 || x24 | x16 | %42
w: na- nes, di- mi-|sit i- na- nes, di- mi-|sit i- na- nes.|||
[M:4/2] F,8 B,,4 F,4 | F,6 F,2 D,4 F,4 | C,4 F,4 (_E,8 | F,8) B,,8 | B,6 B,,2 B,,2 B,,2 F,2 F,2 | %47
w: Si- cut lo-|cu- tus est ad|pa- tres no\-|* stros,|A- bra- ham et se- mi-|
 B,,4 G,,4 A,,4 B,,4 | C,4 D,4 G,,16 || z16 | z16 || F,,8 B,,4 D,4 | C,8 z8 | B,,8 D,4 _E,4 | %54
w: ni e- ius in|sae- cu- la.|||Si- cut e-|rat,|si- cut e-|
 B,,4 B,,6 B,,2 B,,2 B,,2 | F,4 G,4 _E,4 F,4 |[M:4/2] (G,6 F,2 _E,8) | B,,4 B,,4 B,,2 B,,4 B,,2 | %58
w: rat in prin- ci- pi-|o, et nunc, et|sem\- * *|per, et in sae- cu-|
 G,,4 G,2 G,2 _E,4 F,4 | D,8 C,4 G,4- | G,4 G,4 (F,2 E,2 D,2 C,2 | B,,4) F,4 G,8 | D,8 z4 C,4- | %63
w: la sae- cu- lo- rum,|A- men, sae\-|* cu- lo\- * * *|* rum, A-|men, sae\-|
 C,4 C,4 G,,4 =B,,4 | C,8 G,,16 |] %65
w: * cu- lo- rum,|A- men.|

